!!!OTL: UND UNTERM BRUSTLATZ THUTS MIR JUCKEN
!!!ARE: Europa, Mitteleuropa, Deutschland, Schwaben
!!!SCT: Z0253
!!!YEM: Copyright 1995, estate of Helmut Schaffrath.
**kern
*ICvox
*Ivox
*M3/4
*k[f#c#]
*D:
{8A
8F#
8G
=1
8A
8f#
8f#
8e
16d
16c#
16d
16B
=2
8A
8D
8F#}
{8A
8B
8A
=3
8A
8C#
8E
8G
8B
8A
=4
8A
8D
4F#}
{8F#
8G
=5
8A
8f#
8f#
8e
16d
16c#
16d
16B
=6
4A
8F#}
{8A
8B
8A
=7
8A
8c#
8e
8g
8f#
8e
=8
4d
8r}
{8A
8B
8A
=9
8A
8C#
8C#
8A
8B
8A
=10
8A
8D
8D}
{8A
8B
8A
=11
8A
8C#
8E
8G
8B
8A
=12
8A
8D
4F#}
{8F#
8G
=13
8A
8f#
8f#
8e
16d
16c#
16d
16B
=14
4A
8F#}
{8A
8B
8A
=15
8A
8c#
8e
8g
8f#
8e
=16
4d
8r}
==
!!!AGN: lyrisches Lied, Romanze
!!!ONB: ESAC (Essen Associative Code) Database: ZUCCAL
!!!AMT: simple triple
!!!AIN: vox
!!!EED: Helmut Schaffrath
!!!EEV: 1.0
*-
